bundles/org.openhab.ui.habpanel/web/assets/icons/freepik-household/stove-1.svg

<svg xmlns="http://www.w3.org/2000/svg" viewBox="0 0 60 60" style="enable-background:new 0 0 60 60" xml:space="preserve"><path d="M59 0H1a1 1 0 0 0-1 1v58a1 1 0 0 0 1 1h58a1 1 0 0 0 1-1V1a1 1 0 0 0-1-1zm-1 58H2V2h56v56z"/><path d="M16 48c-2.206 0-4 1.794-4 4s1.794 4 4 4 4-1.794 4-4-1.794-4-4-4zm0 6c-1.103 0-2-.897-2-2s.897-2 2-2 2 .897 2 2-.897 2-2 2zM25 48c-2.206 0-4 1.794-4 4s1.794 4 4 4 4-1.794 4-4-1.794-4-4-4zm0 6c-1.103 0-2-.897-2-2s.897-2 2-2 2 .897 2 2-.897 2-2 2zM35 56c2.206 0 4-1.794 4-4s-1.794-4-4-4-4 1.794-4 4 1.794 4 4 4zm0-6c1.103 0 2 .897 2 2s-.897 2-2 2-2-.897-2-2 .897-2 2-2zM44 48c-2.206 0-4 1.794-4 4s1.794 4 4 4 4-1.794 4-4-1.794-4-4-4zm0 6c-1.103 0-2-.897-2-2s.897-2 2-2 2 .897 2 2-.897 2-2 2zM17 26c6.065 0 11-4.935 11-11S23.065 4 17 4 6 8.935 6 15s4.935 11 11 11zm-.989-19.943c.032.524.457.943.989.943s.957-.419.989-.943a9.011 9.011 0 0 1 7.954 7.954c-.524.032-.943.457-.943.989s.419.957.943.989a9.011 9.011 0 0 1-7.954 7.954C17.957 23.419 17.532 23 17 23s-.957.419-.989.943a9.011 9.011 0 0 1-7.954-7.954C8.581 15.957 9 15.532 9 15s-.419-.957-.943-.989a9.013 9.013 0 0 1 7.954-7.954zM43 27c-4.963 0-9 4.037-9 9s4.037 9 9 9 9-4.037 9-9-4.037-9-9-9zm0 16c-3.859 0-7-3.141-7-7s3.141-7 7-7 7 3.141 7 7-3.141 7-7 7z"/><circle cx="11" cy="12" r="1"/><circle cx="17" cy="12" r="1"/><circle cx="14" cy="9" r="1"/><circle cx="20" cy="9" r="1"/><circle cx="14" cy="15" r="1"/><circle cx="20" cy="15" r="1"/><circle cx="23" cy="12" r="1"/><circle cx="40" cy="33" r="1"/><circle cx="43" cy="30" r="1"/><circle cx="37" cy="36" r="1"/><circle cx="43" cy="36" r="1"/><circle cx="46" cy="33" r="1"/><circle cx="49" cy="36" r="1"/><circle cx="11" cy="18" r="1"/><circle cx="17" cy="18" r="1"/><circle cx="14" cy="21" r="1"/><circle cx="20" cy="21" r="1"/><circle cx="23" cy="18" r="1"/><path d="M43 26c6.065 0 11-4.935 11-11S49.065 4 43 4 32 8.935 32 15s4.935 11 11 11zm-.989-19.943c.032.524.457.943.989.943s.957-.419.989-.943a9.011 9.011 0 0 1 7.954 7.954c-.524.032-.943.457-.943.989s.419.957.943.989a9.011 9.011 0 0 1-7.954 7.954C43.957 23.419 43.532 23 43 23s-.957.419-.989.943a9.011 9.011 0 0 1-7.954-7.954c.524-.032.943-.457.943-.989s-.419-.957-.943-.989a9.013 9.013 0 0 1 7.954-7.954z"/><circle cx="37" cy="12" r="1"/><circle cx="43" cy="12" r="1"/><circle cx="40" cy="9" r="1"/><circle cx="46" cy="9" r="1"/><circle cx="40" cy="15" r="1"/><circle cx="46" cy="15" r="1"/><circle cx="49" cy="12" r="1"/><circle cx="37" cy="18" r="1"/><circle cx="43" cy="18" r="1"/><circle cx="40" cy="21" r="1"/><circle cx="46" cy="21" r="1"/><circle cx="49" cy="18" r="1"/><circle cx="40" cy="39" r="1"/><circle cx="43" cy="42" r="1"/><circle cx="46" cy="39" r="1"/><path d="M26 36c0-4.963-4.037-9-9-9s-9 4.037-9 9 4.037 9 9 9 9-4.037 9-9zm-16 0c0-3.859 3.141-7 7-7s7 3.141 7 7-3.141 7-7 7-7-3.141-7-7z"/><circle cx="14" cy="33" r="1"/><circle cx="17" cy="30" r="1"/><circle cx="11" cy="36" r="1"/><circle cx="17" cy="36" r="1"/><circle cx="20" cy="33" r="1"/><circle cx="23" cy="36" r="1"/><circle cx="14" cy="39" r="1"/><circle cx="17" cy="42" r="1"/><circle cx="20" cy="39" r="1"/></svg>

<?xml version="1.0" encoding="iso-8859-1"?>
<!-- Generator: Adobe Illustrator 18.0.0, SVG Export Plug-In . SVG Version: 6.00 Build 0)  -->
<!DOCTYPE svg PUBLIC "-//W3C//DTD SVG 1.1//EN" "http://www.w3.org/Graphics/SVG/1.1/DTD/svg11.dtd">
<svg version="1.1" id="Capa_1" xmlns="http://www.w3.org/2000/svg" xmlns:xlink="http://www.w3.org/1999/xlink" x="0px" y="0px"
	 viewBox="0 0 60 60" style="enable-background:new 0 0 60 60;" xml:space="preserve">
<g>
	<path d="M59,0H1C0.447,0,0,0.447,0,1v58c0,0.553,0.447,1,1,1h58c0.553,0,1-0.447,1-1V1C60,0.447,59.553,0,59,0z M58,58H2V2h56V58z"
		/>
	<path d="M16,48c-2.206,0-4,1.794-4,4s1.794,4,4,4s4-1.794,4-4S18.206,48,16,48z M16,54c-1.103,0-2-0.897-2-2s0.897-2,2-2
		s2,0.897,2,2S17.103,54,16,54z"/>
	<path d="M25,48c-2.206,0-4,1.794-4,4s1.794,4,4,4s4-1.794,4-4S27.206,48,25,48z M25,54c-1.103,0-2-0.897-2-2s0.897-2,2-2
		s2,0.897,2,2S26.103,54,25,54z"/>
	<path d="M35,56c2.206,0,4-1.794,4-4s-1.794-4-4-4s-4,1.794-4,4S32.794,56,35,56z M35,50c1.103,0,2,0.897,2,2s-0.897,2-2,2
		s-2-0.897-2-2S33.897,50,35,50z"/>
	<path d="M44,48c-2.206,0-4,1.794-4,4s1.794,4,4,4s4-1.794,4-4S46.206,48,44,48z M44,54c-1.103,0-2-0.897-2-2s0.897-2,2-2
		s2,0.897,2,2S45.103,54,44,54z"/>
	<path d="M17,26c6.065,0,11-4.935,11-11S23.065,4,17,4S6,8.935,6,15S10.935,26,17,26z M16.011,6.057C16.043,6.581,16.468,7,17,7
		s0.957-0.419,0.989-0.943c4.174,0.458,7.496,3.78,7.954,7.954C25.419,14.043,25,14.468,25,15s0.419,0.957,0.943,0.989
		c-0.458,4.174-3.78,7.496-7.954,7.954C17.957,23.419,17.532,23,17,23s-0.957,0.419-0.989,0.943
		c-4.174-0.458-7.496-3.78-7.954-7.954C8.581,15.957,9,15.532,9,15s-0.419-0.957-0.943-0.989C8.516,9.837,11.837,6.516,16.011,6.057
		z"/>
	<path d="M43,27c-4.963,0-9,4.037-9,9s4.037,9,9,9s9-4.037,9-9S47.963,27,43,27z M43,43c-3.859,0-7-3.141-7-7s3.141-7,7-7
		s7,3.141,7,7S46.859,43,43,43z"/>
	<circle cx="11" cy="12" r="1"/>
	<circle cx="17" cy="12" r="1"/>
	<circle cx="14" cy="9" r="1"/>
	<circle cx="20" cy="9" r="1"/>
	<circle cx="14" cy="15" r="1"/>
	<circle cx="20" cy="15" r="1"/>
	<circle cx="23" cy="12" r="1"/>
	<circle cx="40" cy="33" r="1"/>
	<circle cx="43" cy="30" r="1"/>
	<circle cx="37" cy="36" r="1"/>
	<circle cx="43" cy="36" r="1"/>
	<circle cx="46" cy="33" r="1"/>
	<circle cx="49" cy="36" r="1"/>
	<circle cx="11" cy="18" r="1"/>
	<circle cx="17" cy="18" r="1"/>
	<circle cx="14" cy="21" r="1"/>
	<circle cx="20" cy="21" r="1"/>
	<circle cx="23" cy="18" r="1"/>
	<path d="M43,26c6.065,0,11-4.935,11-11S49.065,4,43,4S32,8.935,32,15S36.935,26,43,26z M42.011,6.057C42.043,6.581,42.468,7,43,7
		s0.957-0.419,0.989-0.943c4.174,0.458,7.496,3.78,7.954,7.954C51.419,14.043,51,14.468,51,15s0.419,0.957,0.943,0.989
		c-0.458,4.174-3.78,7.496-7.954,7.954C43.957,23.419,43.532,23,43,23s-0.957,0.419-0.989,0.943
		c-4.174-0.458-7.496-3.78-7.954-7.954C34.581,15.957,35,15.532,35,15s-0.419-0.957-0.943-0.989
		C34.516,9.837,37.837,6.516,42.011,6.057z"/>
	<circle cx="37" cy="12" r="1"/>
	<circle cx="43" cy="12" r="1"/>
	<circle cx="40" cy="9" r="1"/>
	<circle cx="46" cy="9" r="1"/>
	<circle cx="40" cy="15" r="1"/>
	<circle cx="46" cy="15" r="1"/>
	<circle cx="49" cy="12" r="1"/>
	<circle cx="37" cy="18" r="1"/>
	<circle cx="43" cy="18" r="1"/>
	<circle cx="40" cy="21" r="1"/>
	<circle cx="46" cy="21" r="1"/>
	<circle cx="49" cy="18" r="1"/>
	<circle cx="40" cy="39" r="1"/>
	<circle cx="43" cy="42" r="1"/>
	<circle cx="46" cy="39" r="1"/>
	<path d="M26,36c0-4.963-4.037-9-9-9s-9,4.037-9,9s4.037,9,9,9S26,40.963,26,36z M10,36c0-3.859,3.141-7,7-7s7,3.141,7,7
		s-3.141,7-7,7S10,39.859,10,36z"/>
	<circle cx="14" cy="33" r="1"/>
	<circle cx="17" cy="30" r="1"/>
	<circle cx="11" cy="36" r="1"/>
	<circle cx="17" cy="36" r="1"/>
	<circle cx="20" cy="33" r="1"/>
	<circle cx="23" cy="36" r="1"/>
	<circle cx="14" cy="39" r="1"/>
	<circle cx="17" cy="42" r="1"/>
	<circle cx="20" cy="39" r="1"/>
</g>
<g>
</g>
<g>
</g>
<g>
</g>
<g>
</g>
<g>
</g>
<g>
</g>
<g>
</g>
<g>
</g>
<g>
</g>
<g>
</g>
<g>
</g>
<g>
</g>
<g>
</g>
<g>
</g>
<g>
</g>
</svg>
